flaticon/interaction/server-12.svg

<svg xmlns="http://www.w3.org/2000/svg" width="32" height="32" viewBox="0 0 24 24">
    <path d="M22.511719 13.640625C22.058594 13.191406 21.273438 13.191406 20.820312 13.640625L14.664062 19.796875 13.816406 22.910156 13.609375 23.117188C13.453125 23.273438 13.453125 23.523438 13.605469 23.679688L13.605469 23.6875 13.613281 23.683594C13.691406 23.761719 13.792969 23.800781 13.890625 23.800781 13.996094 23.800781 14.097656 23.761719 14.175781 23.683594L14.382812 23.476562 17.496094 22.625 23.652344 16.46875C24.117188 16.003906 24.117188 15.246094 23.652344 14.78125zM15.589844 20.007812L19.6875 15.910156 21.382812 17.605469 17.285156 21.703125zM15.226562 20.777344L16.515625 22.0625 14.746094 22.546875zM23.085938 15.90625L21.949219 17.039062 20.25 15.34375 21.386719 14.207031C21.535156 14.058594 21.796875 14.058594 21.945312 14.207031L23.085938 15.347656C23.238281 15.5 23.238281 15.75 23.085938 15.90625zM4.199219 2.601562C3.207031 2.601562 2.398438 3.40625 2.398438 4.398438 2.398438 5.390625 3.207031 6.199219 4.199219 6.199219 5.191406 6.199219 6 5.390625 6 4.398438 6 3.40625 5.191406 2.601562 4.199219 2.601562zM4.199219 5.398438C3.648438 5.398438 3.199219 4.953125 3.199219 4.398438 3.199219 3.847656 3.648438 3.398438 4.199219 3.398438 4.75 3.398438 5.199219 3.847656 5.199219 4.398438 5.199219 4.953125 4.75 5.398438 4.199219 5.398438zM20.398438 3.800781C20.398438 4.019531 20.222656 4.199219 20 4.199219 19.777344 4.199219 19.601562 4.019531 19.601562 3.800781 19.601562 3.578125 19.777344 3.398438 20 3.398438 20.222656 3.398438 20.398438 3.578125 20.398438 3.800781zM18.800781 3.800781C18.800781 4.019531 18.621094 4.199219 18.398438 4.199219 18.179688 4.199219 18 4.019531 18 3.800781 18 3.578125 18.179688 3.398438 18.398438 3.398438 18.621094 3.398438 18.800781 3.578125 18.800781 3.800781zM21.199219 5C21.199219 5.222656 21.019531 5.398438 20.800781 5.398438 20.578125 5.398438 20.398438 5.222656 20.398438 5 20.398438 4.777344 20.578125 4.601562 20.800781 4.601562 21.019531 4.601562 21.199219 4.777344 21.199219 5zM19.601562 5C19.601562 5.222656 19.421875 5.398438 19.199219 5.398438 18.980469 5.398438 18.800781 5.222656 18.800781 5 18.800781 4.777344 18.980469 4.601562 19.199219 4.601562 19.421875 4.601562 19.601562 4.777344 19.601562 5zM17.199219 3.800781C17.199219 4.019531 17.019531 4.199219 16.800781 4.199219 16.578125 4.199219 16.398438 4.019531 16.398438 3.800781 16.398438 3.578125 16.578125 3.398438 16.800781 3.398438 17.019531 3.398438 17.199219 3.578125 17.199219 3.800781zM18 5C18 5.222656 17.820312 5.398438 17.601562 5.398438 17.378906 5.398438 17.199219 5.222656 17.199219 5 17.199219 4.777344 17.378906 4.601562 17.601562 4.601562 17.820312 4.601562 18 4.777344 18 5zM15.601562 3.800781C15.601562 4.019531 15.421875 4.199219 15.199219 4.199219 14.980469 4.199219 14.800781 4.019531 14.800781 3.800781 14.800781 3.578125 14.980469 3.398438 15.199219 3.398438 15.421875 3.398438 15.601562 3.578125 15.601562 3.800781zM16.398438 5C16.398438 5.222656 16.222656 5.398438 16 5.398438 15.777344 5.398438 15.601562 5.222656 15.601562 5 15.601562 4.777344 15.777344 4.601562 16 4.601562 16.222656 4.601562 16.398438 4.777344 16.398438 5zM14 3.800781C14 4.019531 13.820312 4.199219 13.601562 4.199219 13.378906 4.199219 13.199219 4.019531 13.199219 3.800781 13.199219 3.578125 13.378906 3.398438 13.601562 3.398438 13.820312 3.398438 14 3.578125 14 3.800781zM14.800781 5C14.800781 5.222656 14.621094 5.398438 14.398438 5.398438 14.179688 5.398438 14 5.222656 14 5 14 4.777344 14.179688 4.601562 14.398438 4.601562 14.621094 4.601562 14.800781 4.777344 14.800781 5zM14.800781 5"/>
    <path d="M 24 6.757812 L 24 2.042969 C 24 1.027344 23.171875 0.199219 22.15625 0.199219 L 1.84375 0.199219 C 0.828125 0.199219 0 1.027344 0 2.042969 L 0 6.757812 C 0 7.34375 0.28125 7.863281 0.710938 8.199219 C 0.28125 8.539062 0 9.054688 0 9.644531 L 0 14.355469 C 0 14.945312 0.28125 15.460938 0.710938 15.800781 C 0.28125 16.136719 0 16.65625 0 17.242188 L 0 21.957031 C 0 22.972656 0.828125 23.800781 1.84375 23.800781 L 11.601562 23.800781 L 11.601562 23 L 1.84375 23 C 1.269531 23 0.800781 22.53125 0.800781 21.957031 L 0.800781 17.242188 C 0.800781 16.667969 1.269531 16.199219 1.84375 16.199219 L 15.199219 16.199219 L 15.199219 15.398438 L 1.84375 15.398438 C 1.269531 15.398438 0.800781 14.933594 0.800781 14.355469 L 0.800781 9.644531 C 0.800781 9.066406 1.269531 8.601562 1.84375 8.601562 L 22.15625 8.601562 C 22.730469 8.601562 23.199219 9.066406 23.199219 9.644531 L 23.199219 12.601562 L 24 12.601562 L 24 9.644531 C 24 9.054688 23.71875 8.539062 23.289062 8.199219 C 23.71875 7.863281 24 7.34375 24 6.757812 Z M 1.84375 7.800781 C 1.269531 7.800781 0.800781 7.332031 0.800781 6.757812 L 0.800781 2.042969 C 0.800781 1.46875 1.269531 1 1.84375 1 L 22.15625 1 C 22.730469 1 23.199219 1.46875 23.199219 2.042969 L 23.199219 6.757812 C 23.199219 7.332031 22.730469 7.800781 22.15625 7.800781 Z M 1.84375 7.800781"/>
    <path d="M2.398438 12C2.398438 12.992188 3.207031 13.800781 4.199219 13.800781 5.191406 13.800781 6 12.992188 6 12 6 11.007812 5.191406 10.199219 4.199219 10.199219 3.207031 10.199219 2.398438 11.007812 2.398438 12zM5.199219 12C5.199219 12.550781 4.75 13 4.199219 13 3.648438 13 3.199219 12.550781 3.199219 12 3.199219 11.449219 3.648438 11 4.199219 11 4.75 11 5.199219 11.449219 5.199219 12zM20.398438 11.398438C20.398438 11.621094 20.222656 11.800781 20 11.800781 19.777344 11.800781 19.601562 11.621094 19.601562 11.398438 19.601562 11.179688 19.777344 11 20 11 20.222656 11 20.398438 11.179688 20.398438 11.398438zM18.800781 11.398438C18.800781 11.621094 18.621094 11.800781 18.398438 11.800781 18.179688 11.800781 18 11.621094 18 11.398438 18 11.179688 18.179688 11 18.398438 11 18.621094 11 18.800781 11.179688 18.800781 11.398438zM21.199219 12.601562C21.199219 12.820312 21.019531 13 20.800781 13 20.578125 13 20.398438 12.820312 20.398438 12.601562 20.398438 12.378906 20.578125 12.199219 20.800781 12.199219 21.019531 12.199219 21.199219 12.378906 21.199219 12.601562zM19.601562 12.601562C19.601562 12.820312 19.421875 13 19.199219 13 18.980469 13 18.800781 12.820312 18.800781 12.601562 18.800781 12.378906 18.980469 12.199219 19.199219 12.199219 19.421875 12.199219 19.601562 12.378906 19.601562 12.601562zM17.199219 11.398438C17.199219 11.621094 17.019531 11.800781 16.800781 11.800781 16.578125 11.800781 16.398438 11.621094 16.398438 11.398438 16.398438 11.179688 16.578125 11 16.800781 11 17.019531 11 17.199219 11.179688 17.199219 11.398438zM18 12.601562C18 12.820312 17.820312 13 17.601562 13 17.378906 13 17.199219 12.820312 17.199219 12.601562 17.199219 12.378906 17.378906 12.199219 17.601562 12.199219 17.820312 12.199219 18 12.378906 18 12.601562zM15.601562 11.398438C15.601562 11.621094 15.421875 11.800781 15.199219 11.800781 14.980469 11.800781 14.800781 11.621094 14.800781 11.398438 14.800781 11.179688 14.980469 11 15.199219 11 15.421875 11 15.601562 11.179688 15.601562 11.398438zM16.398438 12.601562C16.398438 12.820312 16.222656 13 16 13 15.777344 13 15.601562 12.820312 15.601562 12.601562 15.601562 12.378906 15.777344 12.199219 16 12.199219 16.222656 12.199219 16.398438 12.378906 16.398438 12.601562zM14 11.398438C14 11.621094 13.820312 11.800781 13.601562 11.800781 13.378906 11.800781 13.199219 11.621094 13.199219 11.398438 13.199219 11.179688 13.378906 11 13.601562 11 13.820312 11 14 11.179688 14 11.398438zM14.800781 12.601562C14.800781 12.820312 14.621094 13 14.398438 13 14.179688 13 14 12.820312 14 12.601562 14 12.378906 14.179688 12.199219 14.398438 12.199219 14.621094 12.199219 14.800781 12.378906 14.800781 12.601562zM2.398438 19.601562C2.398438 20.59375 3.207031 21.398438 4.199219 21.398438 5.191406 21.398438 6 20.59375 6 19.601562 6 18.609375 5.191406 17.800781 4.199219 17.800781 3.207031 17.800781 2.398438 18.609375 2.398438 19.601562zM5.199219 19.601562C5.199219 20.152344 4.75 20.601562 4.199219 20.601562 3.648438 20.601562 3.199219 20.152344 3.199219 19.601562 3.199219 19.046875 3.648438 18.601562 4.199219 18.601562 4.75 18.601562 5.199219 19.046875 5.199219 19.601562zM5.199219 19.601562"/>
</svg>

<svg xmlns="http://www.w3.org/2000/svg" width="32" height="32" viewBox="0 0 24 24">
    <path d="M22.512 13.64a1.23 1.23 0 0 0-1.692 0l-6.156 6.157-.848 3.113-.207.207a.4.4 0 0 0-.004.563v.008l.008-.004a.394.394 0 0 0 .563 0l.207-.207 3.113-.852 6.156-6.156a1.195 1.195 0 0 0 0-1.688zm-6.922 6.368l4.098-4.098 1.695 1.695-4.098 4.098zm-.363.77l1.289 1.285-1.77.484zm7.859-4.872l-1.137 1.133-1.699-1.695 1.137-1.137a.406.406 0 0 1 .558 0l1.14 1.14a.398.398 0 0 1 0 .56zm0 0M4.2 2.602a1.8 1.8 0 0 0-1.802 1.796c0 .993.809 1.801 1.801 1.801C5.191 6.2 6 5.391 6 4.4a1.8 1.8 0 0 0-1.8-1.797zm0 2.796A1 1 0 1 1 4.197 3.4 1 1 0 0 1 4.2 5.398zm0 0M20.398 3.8a.398.398 0 1 1-.796 0 .398.398 0 1 1 .796 0zm0 0M18.8 3.8A.401.401 0 1 1 18 3.797a.401.401 0 0 1 .802.005zm0 0M21.2 5c0 .223-.18.398-.4.398a.398.398 0 1 1 0-.796c.22 0 .4.175.4.398zm0 0M19.602 5c0 .223-.18.398-.403.398a.398.398 0 1 1 0-.796c.223 0 .403.175.403.398zm0 0M17.2 3.8a.4.4 0 1 1-.801-.003.4.4 0 0 1 .8.004zm0 0M18 5c0 .223-.18.398-.398.398a.398.398 0 1 1 0-.796c.218 0 .398.175.398.398zm0 0M15.602 3.8a.401.401 0 1 1-.802-.004.401.401 0 0 1 .802.005zm0 0M16.398 5a.395.395 0 0 1-.398.398.395.395 0 0 1-.398-.398c0-.223.175-.398.398-.398.223 0 .398.175.398.398zm0 0M14 3.8a.4.4 0 1 1-.8-.003.4.4 0 0 1 .8.004zm0 0M14.8 5c0 .223-.179.398-.402.398a.398.398 0 1 1 0-.796c.223 0 .403.175.403.398zm0 0"/>
    <path d="M24 6.758V2.043A1.847 1.847 0 0 0 22.156.199H1.844A1.847 1.847 0 0 0 0 2.043v4.715c0 .586.281 1.105.71 1.441-.429.34-.71.856-.71 1.446v4.71c0 .59.281 1.106.71 1.446-.429.336-.71.855-.71 1.441v4.715c0 1.016.828 1.844 1.844 1.844h9.758V23H1.844A1.045 1.045 0 0 1 .8 21.957v-4.715c0-.574.469-1.043 1.043-1.043h13.355v-.8H1.844A1.043 1.043 0 0 1 .8 14.354v-4.71c0-.579.469-1.043 1.043-1.043h20.312c.574 0 1.043.464 1.043 1.043v2.957H24V9.645c0-.59-.281-1.106-.71-1.446.429-.336.71-.855.71-1.441zM1.844 7.8A1.045 1.045 0 0 1 .8 6.758V2.043C.8 1.469 1.27 1 1.844 1h20.312c.574 0 1.043.469 1.043 1.043v4.715c0 .574-.469 1.043-1.043 1.043zm0 0"/>
    <path d="M2.398 12c0 .992.809 1.8 1.801 1.8C5.191 13.8 6 12.993 6 12s-.809-1.8-1.8-1.8c-.993 0-1.802.808-1.802 1.8zM5.2 12c0 .55-.449 1-1 1-.55 0-1-.45-1-1s.45-1 1-1c.551 0 1 .45 1 1zm0 0M20.398 11.398a.398.398 0 1 1-.796 0 .398.398 0 1 1 .796 0zm0 0M18.8 11.398a.401.401 0 1 1 0 0zm0 0M21.2 12.602a.4.4 0 1 1-.801-.004.4.4 0 0 1 .8.004zm0 0M19.602 12.602a.401.401 0 1 1-.802-.005.401.401 0 0 1 .802.005zm0 0M17.2 11.398a.401.401 0 1 1-.803.003.401.401 0 0 1 .802-.003zm0 0M18 12.602a.4.4 0 1 1-.8-.004.4.4 0 0 1 .8.004zm0 0M15.602 11.398a.401.401 0 1 1 0 0zm0 0M16.398 12.602a.398.398 0 1 1-.796 0 .398.398 0 1 1 .796 0zm0 0M14 11.398a.401.401 0 1 1-.802.003.401.401 0 0 1 .802-.003zm0 0M14.8 12.602a.401.401 0 1 1-.801-.005.401.401 0 0 1 .802.005zm0 0M2.398 19.602a1.8 1.8 0 0 0 3.602 0c0-.993-.809-1.801-1.8-1.801-.993 0-1.802.808-1.802 1.8zm2.801 0c0 .55-.449 1-1 1a1 1 0 1 1 1-1zm0 0"/>
</svg>
